X: 21686
T: Kilrack's
R: reel
M: 4/4
K: Amajor
C|A,2 A>C A,2 A>C|B,2 B>A F/F/F F2|A2 e>B c2 B>e|c<A e>B cA A2:|
c/d/|e>cA>c e>fd>c|d>fe>c B/B/B Bc/d/|e>cA>c e>fe>c|d>fe>c A/A/A A
d/e/|f>de>c d>Bc>A|d>fe>c B/B/B B2|E>DC>B, C>B,A,>f|e<d c>B cA A||

